src/assets/icons/languages/csharp.svg

<svg viewBox="0 0 123 122" fill="none" xmlns="http://www.w3.org/2000/svg">
<g clip-path="url(#clip0_652_10841)">
<mask id="mask0_652_10841" style="mask-type:alpha" maskUnits="userSpaceOnUse" x="8" y="0" width="106" height="122">
<path d="M61.2612 0L113.961 30.4261V91.2784L61.2612 121.705L8.56165 91.2784V30.4261L61.2612 0Z" fill="black"/>
</mask>
<g mask="url(#mask0_652_10841)">
<rect width="109.333" height="123" transform="translate(6.409 -1)" fill="#280068"/>
<path d="M115.256 34.8059C115.256 32.7581 114.818 30.9485 113.932 29.3959C113.062 27.8683 111.759 26.5883 110.011 25.5763C95.5834 17.2582 81.1421 8.9656 66.7194 0.639061C62.8311 -1.60549 59.0611 -1.52324 55.2017 0.753536C49.4591 4.13944 20.7083 20.6098 12.1409 25.5716C8.61263 27.6144 6.89576 30.7399 6.89492 34.8021C6.8894 51.5302 6.89492 68.2584 6.8894 84.9865C6.8894 86.9894 7.30961 88.7641 8.15638 90.2934C9.0269 91.8668 10.3482 93.182 12.1363 94.2169C20.7041 99.1788 49.4587 115.648 55.2 119.035C59.0611 121.313 62.8311 121.394 66.7207 119.15C81.1438 110.823 95.586 102.53 110.015 94.2119C111.804 93.1774 113.125 91.8613 113.995 90.2892C114.841 88.7595 115.262 86.9851 115.262 84.9818C115.262 84.9818 115.262 51.5345 115.256 34.8059Z" fill="#A179DC"/>
<path d="M61.2415 60.3368L8.1564 90.899C9.02692 92.4724 10.3482 93.7875 12.1363 94.8225C20.7041 99.7843 49.4587 116.253 55.2 119.641C59.0611 121.919 62.8311 122 66.7207 119.755C81.1438 111.428 95.586 103.135 110.015 94.8174C111.804 93.7829 113.125 92.4669 113.995 90.8947L61.2415 60.3368Z" fill="#280068"/>
<path d="M115.256 35.4114C115.256 33.3636 114.818 31.554 113.932 30.0014L61.2415 60.3372L113.995 90.8947C114.841 89.365 115.261 87.5906 115.262 85.5873C115.262 85.5873 115.262 52.1399 115.256 35.4114Z" fill="#390091"/>
<path d="M92.4961 48.9118V54.6245H98.2094V48.9118H101.066V54.6245H106.779V57.4809H101.066V63.1931H106.779V66.0495H101.066V71.7622H98.2094V66.0495H92.4961V71.7622H89.6395V66.0495H83.9267V63.1931H89.6395V57.4809H83.9267V54.6245H89.6395V48.9118H92.4961ZM98.2094 57.4804H92.4961V63.1931H98.2094V57.4804Z" fill="white"/>
<path d="M61.3581 20.2219C76.2599 20.2219 89.2702 28.314 96.239 40.3423L96.1711 40.2266L78.6378 50.3207C75.1837 44.4727 68.8514 40.5259 61.5866 40.4445L61.3576 40.4432C50.28 40.4432 41.2992 49.4231 41.2992 60.4996C41.2956 63.9908 42.2078 67.4219 43.9447 70.4504C47.4022 76.4858 53.902 80.5564 61.3581 80.5564C68.8603 80.5564 75.397 76.434 78.8367 70.3342L78.7531 70.4805L96.2598 80.6213C89.3673 92.5478 76.5351 100.615 61.8067 100.776L61.3581 100.778C46.4091 100.778 33.362 92.636 26.4105 80.5441C23.0171 74.641 21.0755 67.7976 21.0755 60.4996C21.0755 38.2551 39.11 20.2215 61.3576 20.2215L61.3581 20.2219Z" fill="white"/>
</g>
</g>
<defs>
<clipPath id="clip0_652_10841">
<rect width="121.705" height="121.705" fill="white" transform="translate(0.408997)"/>
</clipPath>
</defs>
</svg>

<svg xmlns="http://www.w3.org/2000/svg" fill="none" viewBox="0 0 123 122"><g clip-path="url(#a)"><mask id="b" width="106" height="122" x="8" y="0" maskUnits="userSpaceOnUse" style="mask-type:alpha"><path fill="#000" d="m61.261 0 52.7 30.426v60.852l-52.7 30.427-52.7-30.427V30.426L61.262 0Z"/></mask><g mask="url(#b)"><path fill="#280068" d="M6.409-1h109.333v123H6.409z"/><path fill="#A179DC" d="M115.256 34.806c0-2.048-.438-3.857-1.324-5.41-.87-1.528-2.173-2.808-3.921-3.82C95.583 17.258 81.142 8.966 66.719.64c-3.888-2.244-7.658-2.162-11.517.115C49.459 4.139 20.708 20.61 12.14 25.572c-3.528 2.042-5.245 5.168-5.246 9.23-.006 16.728 0 33.456-.006 50.185 0 2.002.42 3.777 1.267 5.306.87 1.574 2.192 2.889 3.98 3.924 8.568 4.962 37.323 21.431 43.064 24.818 3.861 2.278 7.631 2.359 11.52.115 14.424-8.327 28.866-16.62 43.295-24.938 1.789-1.035 3.11-2.35 3.98-3.923.846-1.53 1.267-3.304 1.267-5.307 0 0 0-33.447-.006-50.176Z"/><path fill="#280068" d="M61.242 60.337 8.156 90.899c.87 1.573 2.192 2.888 3.98 3.924 8.568 4.961 37.323 21.43 43.064 24.818 3.861 2.278 7.631 2.359 11.52.114 14.424-8.327 28.866-16.62 43.295-24.938 1.789-1.034 3.11-2.35 3.98-3.922L61.241 60.337Z"/><path fill="#390091" d="M115.256 35.411c0-2.047-.438-3.857-1.324-5.41l-52.69 30.336 52.753 30.558c.846-1.53 1.266-3.304 1.267-5.308 0 0 0-33.447-.006-50.176Z"/><path fill="#fff" d="M92.496 48.912v5.712h5.713v-5.712h2.857v5.712h5.713v2.857h-5.713v5.712h5.713v2.856h-5.713v5.713h-2.857V66.05h-5.713v5.713H89.64V66.05h-5.713v-2.856h5.712v-5.712h-5.712v-2.857h5.712v-5.712h2.857Zm5.713 8.568h-5.713v5.713h5.713V57.48Z"/><path fill="#fff" d="M61.358 20.222c14.902 0 27.912 8.092 34.881 20.12l-.068-.115L78.638 50.32c-3.454-5.848-9.787-9.795-17.051-9.877h-.23C50.28 40.443 41.3 49.423 41.3 60.5a19.96 19.96 0 0 0 2.646 9.95c3.457 6.036 9.957 10.106 17.413 10.106 7.502 0 14.039-4.122 17.479-10.222l-.084.147L96.26 80.62c-6.893 11.927-19.725 19.994-34.453 20.155l-.449.002c-14.949 0-27.996-8.142-34.947-20.234A40.092 40.092 0 0 1 21.075 60.5c0-22.245 18.034-40.279 40.282-40.279Z"/></g></g><defs><clipPath id="a"><path fill="#fff" d="M.409 0h121.705v121.705H.409z"/></clipPath></defs></svg>
